X: 17094
T: Hedgehog, The
R: slip jig
M: 9/8
K: Dmajor
|:AFA Bcd B2 d|AFA Bcd BAF|AFA Bcd e2 A|fed ecd BAF:|
faf efe d2 A|f2 d ecd BAF|faf efe d2 c|Bdc BAF AFE|
f2 f efe d2 g|fAd ecd B2 f|agf edc d2 A|BdB AFd AFD||

